X:1
T: Off to California
S: Roaring Jelly collection
O: New England
R: hornpipe, reel
M: C|
K: G
(3DEF |\
"G"GFGB "D7"AGED | "G"GBdg "C"e2 (3def |\
"G"gfgd edBG |1,3 "Am"ABAG "D7"E2 :|2,4 "D7"AGEF "G"G2 |]
|: (3def |\
"Em"gfeg "D"fedf | "Em"edef edBd |\
"G"gfgd edBG | "Am"ABAG "D7"E2 (3DEF |
y4 \
"G"GFGB "D7"AGED | "G"GBdg "C"e2 (3def |\
"G"gfgd edBG | "D7"AGEF "G"G2 :|
